X:1
T:Title
%%score { ( 1 3 ) | 2 }
L:1/8
M:4/4
K:Eb
V:1 treble nm="Grand Piano"
V:3 treble 
V:2 bass 
V:1
 z4 z2[Q:1/4=100] [EG]>[FA] | [GB]>[GB] [GB]>[GB] [GB]>[FA] [EG]>[GB] | [Ge]6 [Bd]>[Ac] | %3
 [GB]>[GB] [GB]>[GB] [Ac]>[GB] G>E | [DF]6 [EG]>[FA] | [GB]>[GB] [GB]>[GB] [Ac]>[GB] [Be]>[Bd] | %6
[M:3/4] c6 |[M:1/4] c>c |[M:4/4] B>B B>c B>G [DF]>[DG] |[M:3/4] E6 |[M:1/4] G>[FA] | %11
[M:4/4] [GB]>[GB] [GB]>[GB] [Ac]>[GB] [EG]>[FA] | [GB]6 z2 | G>G G>G B>G [EF]>E | %14
[M:9/8] F6- F z z |[M:4/4] [GB]>[GB] [GB]>[Ac] [GB]2 [GB]>[GB] |[M:7/8] c>cc>c [ce]3 |[M:1/4] c>c | %18
[M:4/4] B>B B>c B>G [DF]>[DG] |[M:7/4] E6 z2 z2 z4 |] %20
V:2
 z4 z2 [E,B,]>[E,B,] | [E,E]>[E,E] [E,E]>[E,E] [E,B,]>[E,B,] [E,B,]>[E,B,] | [E,B,]6 [E,E]>[E,E] | %3
 [E,E]>[E,E] [E,E]>[E,E] [E,E]>[E,E] [E,B,E]>[E,G,] | [B,,B,]6 [E,B,]>[E,B,] | %5
 [E,E]>[E,E] [E,E]>[E,E] [E,E]>[E,E][K:treble] [G,E]>[G,E] |[M:3/4] [A,EA]6 | %7
[M:1/4] [A,EA]>[A,EA] |[M:4/4] [B,EG]>[B,EG] [B,EG]>[B,EA] [B,EG]>[K:bass][B,E] [B,,A,]>[B,,B,] | %9
[M:3/4] [E,G,]6 |[M:1/4] [E,B,E]>[E,B,] | %11
[M:4/4] [E,E]>[E,E] [E,E]>[E,E] [E,E]>[E,E] [E,B,]>[E,B,] | [E,E]2 E,>E, E,2 [E,G,]>[E,A,E] | %13
 [E,B,E]>[E,B,E] [E,B,E]>[E,B,E] [E,G,E]>[E,B,E] [C,=A,]>[C,A,] | %14
[M:9/8] [B,,B,]2 [C,=A,]- [C,A,]/[C,A,]/ [B,,B,]2- [B,,B,][E,B,E]>[E,B,] | %15
[M:4/4] [E,E]>[E,E] [E,E]>[E,E] [E,E]2 [E,E]>[E,E] | %16
[M:7/8][K:treble] [A,EA]>[A,EA][A,EA]>[A,EA] [A,E]3 |[M:1/4] [A,EA]>[A,EA] | %18
[M:4/4] [B,EG]>[B,EG] [B,EG]>[B,EA] [B,EG]>[K:bass][B,E] [B,,A,]>[B,,B,] | %19
[M:7/4] [E,G,]6 z2 z2 z4 |] %20
V:3
 x8 | x8 | x8 | x8 | x8 | x8 |[M:3/4] x6 |[M:1/4] x2 |[M:4/4] x8 |[M:3/4] x6 |[M:1/4] x2 | %11
[M:4/4] x8 | z2 E>E E2 E>F | x8 |[M:9/8] D2 E- E/E/ D2- DG>[FA] |[M:4/4] x8 |[M:7/8] x7 | %17
[M:1/4] x2 |[M:4/4] x8 |[M:7/4] x14 |] %20

